X: 13859
T: Fourty-Six Seconder, The
R: reel
M: 4/4
K: Gmajor
dc|B>AGF G2Bd|g>fec d2 Bc|d>edB cBAG|B<ddBA2 dc|
B>AGF G2Bd|g>fec d2 Bc|d>edB cA =FA|G2 G>A G2||
g2|f2f>e dfaf|g>age d2Bc|d>edB cBAG|B<ddB A2 dc|
B>AGF G2Bd|g>fec d2 Bc|d>edB cA =FA|G2G>A G2||

